packages/vapor/resources/icons/svg/source-discourse.svg

<svg height="32" viewBox="0 0 32 32" width="32" xmlns="http://www.w3.org/2000/svg" xmlns:xlink="http://www.w3.org/1999/xlink"><defs><rect id="a" height="32" rx="2" width="32"/><mask id="b" fill="#fff"><use fill="#fff" fill-rule="evenodd" xlink:href="#a"/></mask></defs><g fill="none" fill-rule="evenodd"><use fill="#39393a" xlink:href="#a"/><g mask="url(#b)"><g transform="matrix(.66913061 .74314483 -.74314483 .66913061 16.21904 -1.69045)"><path d="m9.80671928 19.7240586c-1.41065665-.2977925-2.76043913-.9711458-3.8912931-2.0256842-3.31561938-3.0918651-3.49368563-8.28972044-.39772211-11.60973485s8.29357843-3.50496598 11.60919783-.41310089c3.3156193 3.09186509 3.4936856 8.28972044.3977221 11.60973484-1.3370111 1.4337688-3.0659797 2.2828491-4.8660586 2.5358239l.5385805.0477983.020008 4.0636209z" fill="#e51b24"/><path d="m13.4078437 19.8500093c-1.6894009-.1896609-3.3341363-.9037661-4.6723117-2.1516349-3.31561938-3.0918651-3.49368563-8.28972044-.39772211-11.60973485 3.09596351-3.32001441 8.29357841-3.50496598 11.60919781-.41310089s3.4936856 8.28972044.3977221 11.60973484c-1.0358642 1.1108283-2.3070027 1.8706945-3.6642043 2.2742892l.0412042-.0036569-3.5467016 4.3766108.0200079-4.0636209z" fill="#01adf0"/><path d="m13.0122939 20.0347734c-.0040973.0000061-.0081952.0000092-.0122939.0000092-.0000001-4.1980702 0-12.21381755 0-16.4173913 4.4825651 0 8.1164021 3.67515823 8.1164021 8.2086957 0 3.5832036-2.2700426 6.6301813-5.4349937 7.7501622l-2.505942 4.3581227z" fill="#00a84f"/><path d="m12.9949925 20.0347811c.0016691.000001.0033382.0000015.0050075.0000015.0000001-4.1980702 0-12.21381755 0-16.4173913-4.48256511 0-8.11640212 3.67515823-8.11640212 8.2086957 0 3.7132181 2.43776563 6.850591 5.78297802 7.8643984l2.4733635 4.301465-.1449469-3.9571692z" fill="#f15c21"/><path d="m11.2367134 19.437755c-.9654448-.3800784-1.87231148-.95141-2.66339539-1.7153509-3.26115391-3.1492597-3.31975477-8.37917477-.13088869-11.68134226 1.24968082-1.29408237 2.81264428-2.10006519 4.44769708-2.4122306 1.6388254.23550878 3.2165049.9666721 4.4928093 2.19918497 3.2611539 3.14925972 3.3197548 8.37917479.1308887 11.68134229-.6325594.6550345-1.3453866 1.1850106-2.1072011 1.5891867l-2.2179163 4.8666996z" fill="#fff9ae"/></g></g><path d="m29 0-21 32h24v-32z" fill="#000" opacity=".102204"/></g></svg>

<?xml version="1.0" encoding="UTF-8" standalone="no"?>
<svg width="32px" height="32px" viewBox="0 0 32 32" version="1.1" xmlns="http://www.w3.org/2000/svg" xmlns:xlink="http://www.w3.org/1999/xlink" xmlns:sketch="http://www.bohemiancoding.com/sketch/ns">
    <!-- Generator: Sketch 3.2.2 (9983) - http://www.bohemiancoding.com/sketch -->
    <title>Discourse</title>
    <desc>Created with Sketch.</desc>
    <defs>
        <rect id="path-1" x="0" y="0" width="32" height="32" rx="2"></rect>
    </defs>
    <g id="Sources-Icons-32px" stroke="none" stroke-width="1" fill="none" fill-rule="evenodd" sketch:type="MSPage">
        <g id="Discourse" sketch:type="MSArtboardGroup">
            <g id="source-discourse" sketch:type="MSLayerGroup">
                <mask id="mask-2" sketch:name="BG" fill="white">
                    <use xlink:href="#path-1"></use>
                </mask>
                <use id="BG" fill="#39393A" sketch:type="MSShapeGroup" xlink:href="#path-1"></use>
                <g id="logo-discourse" mask="url(#mask-2)" sketch:type="MSShapeGroup">
                    <g transform="translate(16.000000, 16.000000) rotate(48.000000) translate(-16.000000, -16.000000) translate(3.000000, 4.000000)">
                        <path d="M9.80671928,19.7240586 C8.39606263,19.4262661 7.04628015,18.7529128 5.91542618,17.6983744 C2.5998068,14.6065093 2.42174055,9.40865396 5.51770407,6.08863955 C8.61366759,2.76862514 13.8112825,2.58367357 17.1269019,5.67553866 C20.4425212,8.76740375 20.6205875,13.9652591 17.524624,17.2852735 C16.1876129,18.7190423 14.4586443,19.5681226 12.6585654,19.8210974 L13.1971459,19.8688957 L13.2171539,23.9325166 L9.80671928,19.7240586 Z" id="Oval-2" fill="#E51B24"></path>
                        <path d="M13.4078437,19.8500093 C11.7184428,19.6603484 10.0737074,18.9462432 8.735532,17.6983744 C5.41991262,14.6065093 5.24184637,9.40865396 8.33780989,6.08863955 C11.4337734,2.76862514 16.6313883,2.58367357 19.9470077,5.67553866 C23.2626271,8.76740375 23.4406933,13.9652591 20.3447298,17.2852735 C19.3088656,18.3961018 18.0377271,19.155968 16.6805255,19.5595627 L16.7217297,19.5559058 L13.1750281,23.9325166 L13.195036,19.8688957 L13.4078437,19.8500093 Z" id="Oval-3" fill="#01ADF0"></path>
                        <path d="M13.0122939,20.0347734 C13.0081966,20.0347795 13.0040987,20.0347826 13,20.0347826 C12.9999999,15.8367124 13,7.82096505 13,3.6173913 C17.4825651,3.6173913 21.1164021,7.29254953 21.1164021,11.826087 C21.1164021,15.4092906 18.8463595,18.4562683 15.6814084,19.5762492 L13.1754664,23.9343719 L13.0122939,20.0347734 Z" id="Oval-6" fill="#00A84F"></path>
                        <path d="M12.9949925,20.0347811 C12.9966616,20.0347821 12.9983307,20.0347826 13,20.0347826 C13.0000001,15.8367124 13,7.82096505 13,3.6173913 C8.51743489,3.6173913 4.88359788,7.29254953 4.88359788,11.826087 C4.88359788,15.5393051 7.32136351,18.676678 10.6665759,19.6904854 L13.1399394,23.9919504 L12.9949925,20.0347812 Z" id="Oval-7" fill="#F15C21"></path>
                        <path d="M11.2367134,19.437755 C10.2712686,19.0576766 9.36440192,18.486345 8.57331801,17.7224041 C5.3121641,14.5731444 5.25356324,9.34322933 8.44242932,6.04106184 C9.69211014,4.74697947 11.2550736,3.94099665 12.8901264,3.62883124 L12.8901264,3.62883124 C14.5289518,3.86434002 16.1066313,4.59550334 17.3829357,5.82801621 C20.6440896,8.97727593 20.7026905,14.207191 17.5138244,17.5093585 C16.881265,18.164393 16.1684378,18.6943691 15.4066233,19.0985452 L13.188707,23.9652448 L11.2367134,19.437755 Z" id="Oval-1" fill="#FFF9AE"></path>
                    </g>
                </g>
                <path d="M29,0 L8,32 L32,32 L32,0 L29,0 Z" id="shadow" opacity="0.102203825" fill="#000000" sketch:type="MSShapeGroup" mask="url(#mask-2)"></path>
            </g>
        </g>
    </g>
</svg>
